X:54
T:B054-  Can life be a blessing
Q:1/4=120
L:1/4
M:3/4
K:Gm
B|AdA|B(A/2G/2)B|c3/2d/2e|d(c/2B/2)f|\
g3/2f/2e|f(e/2d/)e|c3/2B/2A|.B2d|\
c2c/2d/2|B2(A/2G/2)|c(B/2A/2)B|AAf|\
=eef|^c(=B/2A/2)d|d3/2=e/2^c|.d2 ^f/2f/2|\
ggc|ffd|=B2g/2d/2|eeA/2=B/2|\
c(c/2B/2) (c/2A/2)|d2A/2B/2|G3/2A/2^F|.G2|]
